X:22
T:Reel de l'Hotelier
C:Joseph Allard
M:2/4
L:1/16
Z:abc by Bruce Osborne - bosborne@kos.net
K:D
AG|F2D2 DFAd|B2G2 GBed|c2A2 Aceg|fdAd fdAG|!
F2D2 DFAd|B2G2 GBed|c2A2 Aceg|f2d2 d2:|!
|:ef|g2gf g2bg|abaf d2fa|gece Aceg|fdAd fdef|!
g2gf g2bg|abaf d2fa|gece Aceg|fddc d2:|!
